X:1
T:D minor Daniel Belknap, 1797
T:Isaac Watts, 1709 (Hymn 52, Book 2) 86. 86. (C. M.)
T:Whale Rock
T:Transcribed from Belknap's The Harmonist's Companion, 1797.
%%score [ 1 2 3 4 ]
L:1/8
M:2/4
K:F
V:1 treble nm="Treble" snm="Tr."
V:2 treble nm="Counter" snm="C."
V:3 treble-8 nm="Tenor" snm="T."
V:4 bass nm="Bass" snm="B."
V:1
"^2. Awake   and mourn, ye    heirs of hell,    Let stubborn    sinners     fear,  You must be driv'n from earth, and""^1.  Death,'tis    a       melancholy          day,     To  those that   have  no  God,  When the poor  soul  is   forced a –" A2 | %1
 A3 A | A3 A | A2 A2 | A3 ^c | d2 d2 | cB A2 | A3 A | A2 d>c | B3 G | AB AG | %11
"^1.  –way   To    seek   her       last     abode.                     In   vain     to    heav'n  she  lifts  her   eyes,              But  guilt,   a" G3 F/G/ | %12
 Ad (3AGF | A2 A2 | A4 |: z2 A2 | d3 d | d3 c/B/ | A2 A2 | A3 A | A3 A | %21
"^1.  heavy        chain,     Still  drags     her    downward   from  the      skies       To      darkness,          fire,  and   pain." A2 d2 | %22
 ^c3 c | d3 B | A3 ^c | d2 B2 | c3 c | df (3edc | A2 A2 | A4 :| %30
V:2
 D2 | D3 D | D3 F | E2 D2 | E3 E | F2 F2 | F2 E2 | F3 D | D2 F2 | E3 E | F2 F2 | %11
"^2. dwell  A     long     for   –   ev  –  er  there.                See  how  the     pit   gapes  wide for     you,            And   flashes" E3 F | %12
 F2 (3FED | D2 C2 | D4 |: z2 D2 | D3 E | F3 G | F2 E2 | F>E DF | F3 F | %21
"^2. in    your     face:      And  thou,     my   soul,      look downwards  too,       And  sing     recov'ring                grace." E2 D2 | %22
 E3 E | D3 E | F3 F | F2 F2 | E3 C | F2 (3CDE | D2 ^C2 | D4 :| %30
V:3
"^3. He  is          a     God  of  sovereign love That promised  heav'n to me,   And taught my thoughts to soar a –" A2 | %1
 dA FG | A3 d | AG F2 | E3 E | DE FG | Ad ^c2 | d3 d | AG F2 | G3 G | FG AB | %11
"^3. –bove,  Where  happy      spirits        be.                  Prepare     me,  Lord, for     thy right  hand,           Then come the" c3 A | %12
 dA (3FGA | AF E2 | D4 |: z2 D2 | F3 G | A3 c | d2 ^c2 | d3 d | c3 d | %21
"^3.  joyful         day,      Come, death, and  some       celestial                band,       To   bear      my         soul    away." AG F2 | %22
 E3 E | F3 E | D3 A | BA GF | G3 A | d2 (3cBA | F2 E2 | D4 :| %30
V:4
 D,2 | D,2 D,2 | D,3 D, | ^C,2 D,2 | A,,3 A,, | D,2 D,E, | F,G, A,2 | D,3 D, | D,2 D,2 | E,3 E, | %10
 D,E, F,G, | C,3 F,/E,/ | D,2 ^C,2 | D,2 A,,2 | D,4 |: %15
 z2"^______________________________________\nEdited by B. C. Johnston, 2015\nAll grace notes removed." D,2 | %16
 D,2 D,2 | D,3 E, | A,2 A,,2 | D,3 D, | F,3 D, | ^C,2 D,2 | A,,3 A,, | D,3 ^C, | D,2 D,2 | %25
 D,2 D,2 | C,3 A,, | B,,2 C,2 | D,2 A,,2 | D,4 :| %30

